src/smileys-emotion/face-smiling/1F923.svg

<svg id="emoji" viewBox="0 0 72 72" xmlns="http://www.w3.org/2000/svg">
  <g id="grid">
    <path fill="#b3b3b3" d="M68,4V68H4V4H68m4-4H0V72H72Z"/>
    <rect x="11" y="10.9583" rx="1.9231" width="50" height="50" fill="none" stroke="#00a5ff" stroke-miterlimit="10" stroke-width="0.1"/>
    <rect x="16" y="4" rx="2.2537" width="40" height="64" fill="none" stroke="#00a5ff" stroke-miterlimit="10" stroke-width="0.1"/>
    <rect x="4" y="16" rx="2.2537" width="64" height="40" fill="none" stroke="#00a5ff" stroke-miterlimit="10" stroke-width="0.1"/>
    <circle cx="36" cy="36" r="29" fill="none" stroke="#00a5ff" stroke-miterlimit="10" stroke-width="0.1"/>
  </g>
  <g id="color">
    <circle cx="35.9997" cy="35.9989" r="24" fill="#fcea2b"/>
    <path fill="#fff" d="M51.58,34.554a11.5549,11.5549,0,0,1,1.2192,4.408C42.9625,47.2342,30.1775,50.5842,28.1236,51.08a11.4345,11.4345,0,0,1-2.6837-3.535l.0985-.0489S40.39,44.1243,51.4407,34.7013Z"/>
    <path fill="#ea5a47" d="M52.799,38.962c.2974,4.6205-2.4688,9.3006-9.0418,12.5673C37.1215,54.8271,31.6358,54.17,28.1237,51.08,30.1775,50.5841,42.9626,47.234,52.799,38.962Z"/>
    <path fill="#92d3f5" d="M67.6926,32.9089a4.2419,4.2419,0,0,1-5.3735,2.6717c-3.9838-1.3386-6.68-6.6869-6.7069-6.74.213-.0912,5.4464-2.637,9.41-1.3052a4.241,4.241,0,0,1,2.6706,5.3737Z"/>
    <path fill="#92d3f5" d="M14.395,59.3977a4.2421,4.2421,0,0,1-2.6718-5.3736c1.3387-3.9837,6.6869-6.68,6.74-6.7068.0912.213,2.6369,5.4464,1.3052,9.41a4.2411,4.2411,0,0,1-5.3737,2.6707Z"/>
  </g>
  <g id="hair"/>
  <g id="skin"/>
  <g id="skin-shadow"/>
  <g id="line">
    <path fill="none" stroke="#000" stroke-linecap="round" stroke-linejoin="round" stroke-width="2" d="M55.2766,23.4489q-.0459-.0708-.0924-.1411A23.0031,23.0031,0,0,0,14.2153,43.3865c.0343.1023.1046.2972.14.3993"/>
    <path fill="none" stroke="#000" stroke-linecap="round" stroke-linejoin="round" stroke-width="2" d="M25.0368,56.22a23.5311,23.5311,0,0,0,21.1991.3755A23.3425,23.3425,0,0,0,58.7218,39.5728"/>
    <path fill="none" stroke="#000" stroke-linecap="round" stroke-linejoin="round" stroke-width="2" d="M51.58,34.554a11.5549,11.5549,0,0,1,1.2192,4.408C42.9625,47.2342,30.1775,50.5842,28.1236,51.08a11.4345,11.4345,0,0,1-2.6837-3.535l.0985-.0489S40.39,44.1243,51.4407,34.7013Z"/>
    <path fill="none" stroke="#000" stroke-linecap="round" stroke-linejoin="round" stroke-width="2" d="M52.799,38.962c.2974,4.6205-2.4688,9.3006-9.0418,12.5673C37.1215,54.8271,31.6358,54.17,28.1237,51.08,30.1775,50.584,42.9625,47.2341,52.799,38.962Z"/>
    <path fill="none" stroke="#000" stroke-linejoin="round" stroke-width="2" d="M67.6926,32.9089a4.2419,4.2419,0,0,1-5.3735,2.6717c-3.9838-1.3386-6.68-6.6869-6.7069-6.74.213-.0912,5.4464-2.637,9.41-1.3052a4.241,4.241,0,0,1,2.6706,5.3737Z"/>
    <path fill="none" stroke="#000" stroke-linejoin="round" stroke-width="2" d="M14.395,59.3977a4.2421,4.2421,0,0,1-2.6718-5.3736c1.3387-3.9837,6.6869-6.68,6.74-6.7068.0912.213,2.6369,5.4464,1.3052,9.41a4.2411,4.2411,0,0,1-5.3737,2.6707Z"/>
    <polyline fill="none" stroke="#000" stroke-linecap="round" stroke-linejoin="round" stroke-width="2" points="22.478 33.13 30.163 33.793 25.928 40.072"/>
    <polyline fill="none" stroke="#000" stroke-linecap="round" stroke-linejoin="round" stroke-width="2" points="41.878 23.488 37.766 30.014 45.328 30.43"/>
  </g>
</svg>

<svg viewBox="0 0 72 72" xmlns="http://www.w3.org/2000/svg"><path fill="#b3b3b3" d="M68 4v64H4V4h64m4-4H0v72h72z"/><rect x="11" y="10.958" rx="1.923" width="50" height="50" fill="none" stroke="#00a5ff" stroke-miterlimit="10" stroke-width=".1"/><rect x="16" y="4" rx="2.254" width="40" height="64" fill="none" stroke="#00a5ff" stroke-miterlimit="10" stroke-width=".1"/><rect x="4" y="16" rx="2.254" width="64" height="40" fill="none" stroke="#00a5ff" stroke-miterlimit="10" stroke-width=".1"/><circle cx="36" cy="36" r="29" fill="none" stroke="#00a5ff" stroke-miterlimit="10" stroke-width=".1"/><g stroke-linecap="round" stroke-miterlimit="10" stroke-width="6" stroke="#fff" fill="none" stroke-linejoin="round"><path d="M55.277 23.449l-.093-.141a23.003 23.003 0 00-40.969 20.078l.14.4M25.037 56.22a23.531 23.531 0 0021.199.376 23.343 23.343 0 0012.486-17.023m-7.142-5.019a11.555 11.555 0 011.22 4.408c-9.837 8.272-22.622 11.622-24.676 12.118a11.434 11.434 0 01-2.684-3.535l.098-.049s14.852-3.372 25.903-12.795z"/><path d="M52.799 38.962c.297 4.62-2.469 9.3-9.042 12.567-6.636 3.298-12.121 2.641-15.633-.449 2.053-.496 14.838-3.846 24.675-12.118zm14.894-6.053a4.242 4.242 0 01-5.374 2.672c-3.984-1.339-6.68-6.687-6.707-6.74.213-.092 5.447-2.637 9.41-1.306a4.241 4.241 0 012.67 5.374zM14.395 59.398a4.242 4.242 0 01-2.672-5.374c1.339-3.984 6.687-6.68 6.74-6.707.091.213 2.637 5.447 1.305 9.41a4.241 4.241 0 01-5.373 2.671zm8.083-26.268l7.685.663-4.235 6.279m15.95-16.584l-4.112 6.526 7.562.416"/></g><circle cx="36" cy="35.999" r="24" fill="#fcea2b"/><path fill="#fff" d="M51.58 34.554a11.555 11.555 0 011.22 4.408c-9.837 8.272-22.622 11.622-24.676 12.118a11.434 11.434 0 01-2.684-3.535l.098-.049s14.852-3.372 25.903-12.795z"/><path fill="#ea5a47" d="M52.799 38.962c.297 4.62-2.469 9.3-9.042 12.567-6.636 3.298-12.121 2.641-15.633-.449 2.053-.496 14.839-3.846 24.675-12.118z"/><path fill="#92d3f5" d="M67.693 32.909a4.242 4.242 0 01-5.374 2.672c-3.984-1.339-6.68-6.687-6.707-6.74.213-.092 5.447-2.637 9.41-1.306a4.241 4.241 0 012.67 5.374zM14.395 59.398a4.242 4.242 0 01-2.672-5.374c1.339-3.984 6.687-6.68 6.74-6.707.091.213 2.637 5.447 1.305 9.41a4.241 4.241 0 01-5.373 2.671z"/><g fill="none" stroke="#000" stroke-linejoin="round" stroke-width="2"><path stroke-linecap="round" d="M55.277 23.449l-.093-.141a23.003 23.003 0 00-40.969 20.078l.14.4M25.037 56.22a23.531 23.531 0 0021.199.376 23.343 23.343 0 0012.486-17.023m-7.142-5.019a11.555 11.555 0 011.22 4.408c-9.837 8.272-22.622 11.622-24.676 12.118a11.434 11.434 0 01-2.684-3.535l.098-.049s14.852-3.372 25.903-12.795z"/><path stroke-linecap="round" d="M52.799 38.962c.297 4.62-2.469 9.3-9.042 12.567-6.636 3.298-12.121 2.641-15.633-.449 2.053-.496 14.838-3.846 24.675-12.118z"/><path d="M67.693 32.909a4.242 4.242 0 01-5.374 2.672c-3.984-1.339-6.68-6.687-6.707-6.74.213-.092 5.447-2.637 9.41-1.306a4.241 4.241 0 012.67 5.374zM14.395 59.398a4.242 4.242 0 01-2.672-5.374c1.339-3.984 6.687-6.68 6.74-6.707.091.213 2.637 5.447 1.305 9.41a4.241 4.241 0 01-5.373 2.671z"/><path stroke-linecap="round" d="M22.478 33.13l7.685.663-4.235 6.279m15.95-16.584l-4.112 6.526 7.562.416"/></g></svg>
